images/icons/googleplus.svg

<svg xmlns="http://www.w3.org/2000/svg" xmlns:xlink="http://www.w3.org/1999/xlink" width="48px" height="48px" viewBox="0 0 48 48" version="1.1">
<defs>
<linearGradient id="linear0" gradientUnits="userSpaceOnUse" x1="1" y1="0" x2="47" y2="0" gradientTransform="matrix(0,-1,1,0,0.00221467,48.000001)">
<stop offset="0" style="stop-color:rgb(84.705882%,26.666667%,18.823529%);stop-opacity:1;"/>
<stop offset="1" style="stop-color:rgb(85.882353%,32.941176%,25.490196%);stop-opacity:1;"/>
</linearGradient>
</defs>
<g id="surface1">
<path style=" stroke:none;fill-rule:nonzero;fill:rgb(0%,0%,0%);fill-opacity:0.0196078;" d="M 1 43 L 1 43.25 C 1 45.464844 2.785156 47.25 5 47.25 L 43 47.25 C 45.214844 47.25 47 45.464844 47 43.25 L 47 43 C 47 45.214844 45.214844 47 43 47 L 5 47 C 2.785156 47 1 45.214844 1 43 Z M 1 43.5 L 1 44 C 1 46.214844 2.785156 48 5 48 L 43 48 C 45.214844 48 47 46.214844 47 44 L 47 43.5 C 47 45.714844 45.214844 47.5 43 47.5 L 5 47.5 C 2.785156 47.5 1 45.714844 1 43.5 Z M 1 43.5 "/>
<path style=" stroke:none;fill-rule:nonzero;fill:rgb(0%,0%,0%);fill-opacity:0.0509804;" d="M 1 43.25 L 1 43.5 C 1 45.714844 2.785156 47.5 5 47.5 L 43 47.5 C 45.214844 47.5 47 45.714844 47 43.5 L 47 43.25 C 47 45.464844 45.214844 47.25 43 47.25 L 5 47.25 C 2.785156 47.25 1 45.464844 1 43.25 Z M 1 43.25 "/>
<path style=" stroke:none;fill-rule:nonzero;fill:rgb(0%,0%,0%);fill-opacity:0.101961;" d="M 1 43 L 1 43.25 C 1 45.464844 2.785156 47.25 5 47.25 L 43 47.25 C 45.214844 47.25 47 45.464844 47 43.25 L 47 43 C 47 45.214844 45.214844 47 43 47 L 5 47 C 2.785156 47 1 45.214844 1 43 Z M 1 43 "/>
<path style=" stroke:none;fill-rule:nonzero;fill:url(#linear0);" d="M 1 43 L 1 5 C 1 2.789062 2.789062 1 5 1 L 43 1 C 45.210938 1 47 2.789062 47 5 L 47 43 C 47 45.210938 45.210938 47 43 47 L 5 47 C 2.789062 47 1 45.210938 1 43 Z M 1 43 "/>
<path style=" stroke:none;fill-rule:nonzero;fill:rgb(0%,0%,0%);fill-opacity:0.101961;" d="M 21.039062 13.148438 C 21.230469 13.296875 21.457031 13.496094 21.714844 13.746094 C 21.972656 13.976562 22.222656 14.273438 22.457031 14.628906 C 22.695312 14.964844 22.898438 15.363281 23.070312 15.828125 C 23.242188 16.289062 23.328125 16.8125 23.328125 17.402344 C 23.328125 17.988281 23.253906 18.503906 23.101562 18.945312 C 22.953125 19.386719 22.746094 19.785156 22.488281 20.140625 C 22.230469 20.476562 21.941406 20.792969 21.617188 21.085938 C 21.296875 21.359375 20.960938 21.621094 20.617188 21.875 C 20.402344 22.082031 20.199219 22.304688 20.003906 22.535156 C 19.8125 22.765625 19.714844 23.058594 19.714844 23.417969 C 19.714844 23.773438 19.8125 24.058594 20.003906 24.265625 C 20.199219 24.457031 20.382812 24.625 20.554688 24.773438 L 21.714844 25.652344 C 22.058594 25.949219 22.394531 26.242188 22.714844 26.535156 C 23.058594 26.828125 23.351562 27.144531 23.585938 27.480469 C 23.84375 27.816406 24.050781 28.195312 24.199219 28.613281 C 24.351562 29.035156 24.425781 29.515625 24.425781 30.0625 C 24.425781 30.796875 24.242188 31.523438 23.878906 32.238281 C 23.511719 32.949219 22.972656 33.582031 22.265625 34.125 C 21.554688 34.691406 20.660156 35.144531 19.585938 35.480469 C 18.53125 35.835938 17.316406 36.015625 15.941406 36.015625 C 14.777344 36.015625 13.757812 35.890625 12.875 35.636719 C 12.015625 35.386719 11.292969 35.050781 10.714844 34.625 C 10.132812 34.207031 9.703125 33.722656 9.421875 33.175781 C 9.144531 32.652344 9.003906 32.097656 9.003906 31.507812 C 9.003906 30.941406 9.1875 30.289062 9.550781 29.554688 C 9.898438 28.839844 10.542969 28.210938 11.488281 27.664062 C 11.984375 27.371094 12.511719 27.128906 13.070312 26.941406 C 13.648438 26.773438 14.21875 26.636719 14.777344 26.53125 C 15.34375 26.425781 15.863281 26.351562 16.359375 26.3125 C 16.855469 26.269531 17.285156 26.238281 17.648438 26.214844 C 17.414062 25.921875 17.1875 25.609375 16.972656 25.304688 C 16.777344 24.96875 16.683594 24.558594 16.683594 24.074219 C 16.683594 23.800781 16.714844 23.582031 16.777344 23.414062 C 16.84375 23.222656 16.925781 23.035156 17.007812 22.847656 C 16.835938 22.867188 16.660156 22.886719 16.488281 22.910156 C 16.316406 22.910156 16.144531 22.910156 15.972656 22.910156 C 15.113281 22.910156 14.347656 22.773438 13.683594 22.503906 C 13.015625 22.210938 12.457031 21.828125 12.003906 21.367188 C 11.550781 20.902344 11.207031 20.382812 10.972656 19.789062 C 10.734375 19.1875 10.617188 18.574219 10.617188 17.96875 C 10.617188 17.234375 10.789062 16.496094 11.136719 15.761719 C 11.480469 15.007812 11.992188 14.335938 12.6875 13.738281 C 13.609375 13.007812 14.578125 12.53125 15.589844 12.320312 C 16.617188 12.113281 17.574219 12.007812 18.460938 12.007812 L 25.105469 12.007812 L 23.039062 13.140625 L 21.039062 13.140625 M 17.488281 22.023438 C 17.898438 22.023438 18.304688 21.9375 18.683594 21.769531 C 19.089844 21.601562 19.425781 21.394531 19.683594 21.140625 C 20.046875 20.785156 20.273438 20.386719 20.359375 19.945312 C 20.445312 19.507812 20.488281 19.136719 20.488281 18.84375 C 20.488281 18.273438 20.402344 17.65625 20.230469 16.984375 C 20.058594 16.3125 19.800781 15.683594 19.460938 15.09375 C 19.113281 14.507812 18.6875 14.023438 18.171875 13.644531 C 17.675781 13.246094 17.09375 13.046875 16.429688 13.046875 C 15.996094 13.046875 15.574219 13.140625 15.171875 13.332031 C 14.761719 13.519531 14.429688 13.769531 14.171875 14.085938 C 13.894531 14.421875 13.695312 14.789062 13.59375 15.1875 C 13.507812 15.585938 13.464844 15.996094 13.464844 16.417969 C 13.464844 16.941406 13.535156 17.53125 13.691406 18.179688 C 13.863281 18.832031 14.109375 19.441406 14.433594 20.007812 C 14.777344 20.574219 15.195312 21.058594 15.691406 21.457031 C 16.214844 21.835938 16.808594 22.023438 17.496094 22.023438 M 22.273438 31.285156 C 22.273438 30.882812 22.195312 30.515625 22.046875 30.179688 C 21.914062 29.867188 21.710938 29.550781 21.433594 29.234375 C 21.152344 28.921875 20.785156 28.597656 20.335938 28.261719 C 19.882812 27.925781 19.355469 27.546875 18.753906 27.125 C 18.621094 27.105469 18.507812 27.09375 18.398438 27.09375 C 18.3125 27.09375 18.183594 27.09375 18.011719 27.09375 C 17.945312 27.09375 17.796875 27.09375 17.5625 27.09375 C 17.324219 27.117188 17.046875 27.136719 16.722656 27.15625 C 16.398438 27.199219 16.054688 27.257812 15.691406 27.316406 C 15.324219 27.398438 14.96875 27.492188 14.628906 27.597656 C 14.453125 27.660156 14.210938 27.757812 13.886719 27.882812 C 13.585938 28.027344 13.28125 28.226562 12.984375 28.480469 C 12.683594 28.730469 12.414062 29.046875 12.175781 29.425781 C 11.960938 29.804688 11.855469 30.277344 11.855469 30.84375 C 11.855469 31.976562 12.359375 32.902344 13.371094 33.613281 C 14.402344 34.328125 15.789062 34.683594 17.53125 34.683594 C 19.097656 34.683594 20.261719 34.359375 21.054688 33.707031 C 21.867188 33.078125 22.28125 32.269531 22.28125 31.285156 "/>
<path style=" stroke:none;fill-rule:nonzero;fill:rgb(0%,0%,0%);fill-opacity:0.101961;" d="M 34 16.738281 L 34 22 L 39 22 L 39 24 L 34 24 L 34 29 L 32 29 L 32 24 L 27 24 L 27 22 L 32 22 L 32 16.738281 "/>
<path style=" stroke:none;fill-rule:nonzero;fill:rgb(97.647059%,97.647059%,97.647059%);fill-opacity:1;" d="M 21.039062 12.148438 C 21.230469 12.296875 21.457031 12.496094 21.714844 12.746094 C 21.972656 12.976562 22.222656 13.273438 22.457031 13.628906 C 22.695312 13.964844 22.898438 14.363281 23.070312 14.828125 C 23.242188 15.289062 23.328125 15.8125 23.328125 16.402344 C 23.328125 16.988281 23.253906 17.503906 23.101562 17.945312 C 22.953125 18.386719 22.746094 18.785156 22.488281 19.140625 C 22.230469 19.476562 21.941406 19.792969 21.617188 20.085938 C 21.296875 20.359375 20.960938 20.621094 20.617188 20.875 C 20.402344 21.082031 20.199219 21.304688 20.003906 21.535156 C 19.8125 21.765625 19.714844 22.058594 19.714844 22.417969 C 19.714844 22.773438 19.8125 23.058594 20.003906 23.265625 C 20.199219 23.457031 20.382812 23.625 20.554688 23.773438 L 21.714844 24.652344 C 22.058594 24.949219 22.394531 25.242188 22.714844 25.535156 C 23.058594 25.828125 23.351562 26.144531 23.585938 26.480469 C 23.84375 26.816406 24.050781 27.195312 24.199219 27.613281 C 24.351562 28.035156 24.425781 28.515625 24.425781 29.0625 C 24.425781 29.796875 24.242188 30.523438 23.878906 31.238281 C 23.511719 31.949219 22.972656 32.582031 22.265625 33.125 C 21.554688 33.691406 20.660156 34.144531 19.585938 34.480469 C 18.53125 34.835938 17.316406 35.015625 15.941406 35.015625 C 14.777344 35.015625 13.757812 34.890625 12.875 34.636719 C 12.015625 34.386719 11.292969 34.050781 10.714844 33.625 C 10.132812 33.207031 9.703125 32.722656 9.421875 32.175781 C 9.144531 31.652344 9.003906 31.097656 9.003906 30.507812 C 9.003906 29.941406 9.1875 29.289062 9.550781 28.554688 C 9.898438 27.839844 10.542969 27.210938 11.488281 26.664062 C 11.984375 26.371094 12.511719 26.128906 13.070312 25.941406 C 13.648438 25.773438 14.21875 25.636719 14.777344 25.53125 C 15.34375 25.425781 15.863281 25.351562 16.359375 25.3125 C 16.855469 25.269531 17.285156 25.238281 17.648438 25.214844 C 17.414062 24.921875 17.1875 24.609375 16.972656 24.304688 C 16.777344 23.96875 16.683594 23.558594 16.683594 23.074219 C 16.683594 22.800781 16.714844 22.582031 16.777344 22.414062 C 16.84375 22.222656 16.925781 22.035156 17.007812 21.847656 C 16.835938 21.867188 16.660156 21.886719 16.488281 21.910156 C 16.316406 21.910156 16.144531 21.910156 15.972656 21.910156 C 15.113281 21.910156 14.347656 21.773438 13.683594 21.503906 C 13.015625 21.210938 12.457031 20.828125 12.003906 20.367188 C 11.550781 19.902344 11.207031 19.382812 10.972656 18.789062 C 10.734375 18.1875 10.617188 17.574219 10.617188 16.96875 C 10.617188 16.234375 10.789062 15.496094 11.136719 14.761719 C 11.480469 14.007812 11.992188 13.335938 12.6875 12.738281 C 13.609375 12.007812 14.578125 11.53125 15.589844 11.320312 C 16.617188 11.113281 17.574219 11.007812 18.460938 11.007812 L 25.105469 11.007812 L 23.039062 12.140625 L 21.039062 12.140625 M 17.488281 21.023438 C 17.898438 21.023438 18.304688 20.9375 18.683594 20.769531 C 19.089844 20.601562 19.425781 20.394531 19.683594 20.140625 C 20.046875 19.785156 20.273438 19.386719 20.359375 18.945312 C 20.445312 18.507812 20.488281 18.136719 20.488281 17.84375 C 20.488281 17.273438 20.402344 16.65625 20.230469 15.984375 C 20.058594 15.3125 19.800781 14.683594 19.460938 14.09375 C 19.113281 13.507812 18.6875 13.023438 18.171875 12.644531 C 17.675781 12.246094 17.09375 12.046875 16.429688 12.046875 C 15.996094 12.046875 15.574219 12.140625 15.171875 12.332031 C 14.761719 12.519531 14.429688 12.769531 14.171875 13.085938 C 13.894531 13.421875 13.695312 13.789062 13.59375 14.1875 C 13.507812 14.585938 13.464844 14.996094 13.464844 15.417969 C 13.464844 15.941406 13.535156 16.53125 13.691406 17.179688 C 13.863281 17.832031 14.109375 18.441406 14.433594 19.007812 C 14.777344 19.574219 15.195312 20.058594 15.691406 20.457031 C 16.214844 20.835938 16.808594 21.023438 17.496094 21.023438 M 22.273438 30.285156 C 22.273438 29.882812 22.195312 29.515625 22.046875 29.179688 C 21.914062 28.867188 21.710938 28.550781 21.433594 28.234375 C 21.152344 27.921875 20.785156 27.597656 20.335938 27.261719 C 19.882812 26.925781 19.355469 26.546875 18.753906 26.125 C 18.621094 26.105469 18.507812 26.09375 18.398438 26.09375 C 18.3125 26.09375 18.183594 26.09375 18.011719 26.09375 C 17.945312 26.09375 17.796875 26.09375 17.5625 26.09375 C 17.324219 26.117188 17.046875 26.136719 16.722656 26.15625 C 16.398438 26.199219 16.054688 26.257812 15.691406 26.316406 C 15.324219 26.398438 14.96875 26.492188 14.628906 26.597656 C 14.453125 26.660156 14.210938 26.757812 13.886719 26.882812 C 13.585938 27.027344 13.28125 27.226562 12.984375 27.480469 C 12.683594 27.730469 12.414062 28.046875 12.175781 28.425781 C 11.960938 28.804688 11.855469 29.277344 11.855469 29.84375 C 11.855469 30.976562 12.359375 31.902344 13.371094 32.613281 C 14.402344 33.328125 15.789062 33.683594 17.53125 33.683594 C 19.097656 33.683594 20.261719 33.359375 21.054688 32.707031 C 21.867188 32.078125 22.28125 31.269531 22.28125 30.285156 "/>
<path style=" stroke:none;fill-rule:nonzero;fill:rgb(97.647059%,97.647059%,97.647059%);fill-opacity:1;" d="M 34 15.738281 L 34 21 L 39 21 L 39 23 L 34 23 L 34 28 L 32 28 L 32 23 L 27 23 L 27 21 L 32 21 L 32 15.738281 "/>
<path style=" stroke:none;fill-rule:nonzero;fill:rgb(0%,0%,0%);fill-opacity:0.101961;" d="M 1 38.996094 L 1 42.996094 C 1 45.214844 2.785156 46.996094 5 46.996094 L 43 46.996094 C 45.214844 46.996094 47 45.214844 47 42.996094 L 47 38.996094 C 47 41.214844 45.214844 42.996094 43 42.996094 L 5 42.996094 C 2.785156 42.996094 1 41.214844 1 38.996094 Z M 1 38.996094 "/>
</g>
</svg>

<?xml version="1.0" encoding="UTF-8" standalone="no"?>
<svg
   xmlns:dc="http://purl.org/dc/elements/1.1/"
   xmlns:cc="http://creativecommons.org/ns#"
   xmlns:rdf="http://www.w3.org/1999/02/22-rdf-syntax-ns#"
   xmlns:svg="http://www.w3.org/2000/svg"
   xmlns="http://www.w3.org/2000/svg"
   xmlns:xlink="http://www.w3.org/1999/xlink"
   xmlns:sodipodi="http://sodipodi.sourceforge.net/DTD/sodipodi-0.dtd"
   xmlns:inkscape="http://www.inkscape.org/namespaces/inkscape"
   viewBox="0 0 48 48"
   id="svg3058"
   version="1.1"
   inkscape:version="0.48.5 r10040"
   width="100%"
   height="100%"
   sodipodi:docname="googleplus.svg">
  <metadata
     id="metadata3121">
    <rdf:RDF>
      <cc:Work
         rdf:about="">
        <dc:format>image/svg+xml</dc:format>
        <dc:type
           rdf:resource="http://purl.org/dc/dcmitype/StillImage" />
      </cc:Work>
    </rdf:RDF>
  </metadata>
  <sodipodi:namedview
     pagecolor="#ffffff"
     bordercolor="#666666"
     borderopacity="1"
     objecttolerance="10"
     gridtolerance="10"
     guidetolerance="10"
     inkscape:pageopacity="0"
     inkscape:pageshadow="2"
     inkscape:window-width="640"
     inkscape:window-height="480"
     id="namedview3119"
     showgrid="false"
     inkscape:zoom="4.9166667"
     inkscape:cx="24"
     inkscape:cy="24"
     inkscape:window-x="0"
     inkscape:window-y="0"
     inkscape:window-maximized="0"
     inkscape:current-layer="svg3058" />
  <defs
     id="defs3060">
    <linearGradient
       id="linearGradient3764"
       x1="1"
       x2="47"
       gradientUnits="userSpaceOnUse"
       gradientTransform="translate(-48.000001,0.00221467)">
      <stop
         stop-color="#d84430"
         stop-opacity="1"
         id="stop3063" />
      <stop
         offset="1"
         stop-color="#db5441"
         stop-opacity="1"
         id="stop3065" />
    </linearGradient>
    <clipPath
       id="clipPath-272098452">
      <g
         transform="translate(0,-1004.3622)"
         id="g3068">
        <rect
           rx="4"
           y="1005.36"
           x="1"
           height="46"
           width="46"
           fill="#1890d0"
           id="rect3070" />
      </g>
    </clipPath>
    <clipPath
       id="clipPath-286296608">
      <g
         transform="translate(0,-1004.3622)"
         id="g3073">
        <rect
           rx="4"
           y="1005.36"
           x="1"
           height="46"
           width="46"
           fill="#1890d0"
           id="rect3075" />
      </g>
    </clipPath>
    <linearGradient
       inkscape:collect="always"
       xlink:href="#linearGradient3764"
       id="linearGradient4448"
       gradientUnits="userSpaceOnUse"
       gradientTransform="translate(-48.000001,0.00221467)"
       x1="1"
       x2="47" />
  </defs>
  <path
     style="opacity:0.02000002"
     inkscape:connector-curvature="0"
     id="path3079"
     d="m 1,43 0,0.25 c 0,2.216 1.784,4 4,4 l 38,0 c 2.216,0 4,-1.784 4,-4 L 47,43 c 0,2.216 -1.784,4 -4,4 L 5,47 C 2.784,47 1,45.216 1,43 z m 0,0.5 0,0.5 c 0,2.216 1.784,4 4,4 l 38,0 c 2.216,0 4,-1.784 4,-4 l 0,-0.5 c 0,2.216 -1.784,4 -4,4 l -38,0 c -2.216,0 -4,-1.784 -4,-4 z" />
  <path
     style="opacity:0.05"
     inkscape:connector-curvature="0"
     id="path3081"
     d="m 1,43.25 0,0.25 c 0,2.216 1.784,4 4,4 l 38,0 c 2.216,0 4,-1.784 4,-4 l 0,-0.25 c 0,2.216 -1.784,4 -4,4 l -38,0 c -2.216,0 -4,-1.784 -4,-4 z" />
  <path
     style="opacity:0.1"
     inkscape:connector-curvature="0"
     id="path3083"
     d="m 1,43 0,0.25 c 0,2.216 1.784,4 4,4 l 38,0 c 2.216,0 4,-1.784 4,-4 L 47,43 c 0,2.216 -1.784,4 -4,4 L 5,47 C 2.784,47 1,45.216 1,43 z" />
  <rect
     style="fill:url(#linearGradient4448);fill-opacity:1"
     id="rect3087"
     transform="matrix(0,-1,1,0,0,0)"
     rx="4"
     y="1"
     x="-47"
     height="46"
     width="46" />
  <path
     d="m 21.04,13.148 c 0.191,0.148 0.418,0.348 0.676,0.598 0.258,0.23 0.508,0.527 0.742,0.883 0.238,0.336 0.441,0.734 0.613,1.199 0.172,0.461 0.258,0.984 0.258,1.574 0,0.586 -0.074,1.102 -0.227,1.543 -0.148,0.441 -0.355,0.84 -0.613,1.195 -0.258,0.336 -0.547,0.652 -0.871,0.945 -0.32,0.273 -0.656,0.535 -1,0.789 -0.215,0.207 -0.418,0.43 -0.613,0.66 -0.191,0.23 -0.289,0.523 -0.289,0.883 0,0.355 0.098,0.641 0.289,0.848 0.195,0.191 0.379,0.359 0.551,0.508 l 1.16,0.879 c 0.344,0.297 0.68,0.59 1,0.883 0.344,0.293 0.637,0.609 0.871,0.945 0.258,0.336 0.465,0.715 0.613,1.133 0.152,0.422 0.227,0.902 0.227,1.449 0,0.734 -0.184,1.461 -0.547,2.176 -0.367,0.711 -0.906,1.344 -1.613,1.887 -0.711,0.566 -1.605,1.02 -2.68,1.355 -1.055,0.355 -2.27,0.535 -3.645,0.535 -1.164,0 -2.184,-0.125 -3.066,-0.379 -0.859,-0.25 -1.582,-0.586 -2.16,-1.012 C 10.134,34.206 9.704,33.722 9.423,33.175 9.146,32.652 9.005,32.097 9.005,31.507 c 0,-0.566 0.184,-1.219 0.547,-1.953 0.348,-0.715 0.992,-1.344 1.938,-1.891 0.496,-0.293 1.023,-0.535 1.582,-0.723 0.578,-0.168 1.148,-0.305 1.707,-0.41 0.566,-0.105 1.086,-0.18 1.582,-0.219 0.496,-0.043 0.926,-0.074 1.289,-0.098 -0.234,-0.293 -0.461,-0.605 -0.676,-0.91 -0.195,-0.336 -0.289,-0.746 -0.289,-1.23 0,-0.273 0.031,-0.492 0.094,-0.66 0.066,-0.191 0.148,-0.379 0.23,-0.566 -0.172,0.02 -0.348,0.039 -0.52,0.063 -0.172,0 -0.344,0 -0.516,0 -0.859,0 -1.625,-0.137 -2.289,-0.406 -0.668,-0.293 -1.227,-0.676 -1.68,-1.137 -0.453,-0.465 -0.797,-0.984 -1.031,-1.578 -0.238,-0.602 -0.355,-1.215 -0.355,-1.82 0,-0.734 0.172,-1.473 0.52,-2.207 0.344,-0.754 0.855,-1.426 1.551,-2.023 0.922,-0.73 1.891,-1.207 2.902,-1.418 1.027,-0.207 1.984,-0.313 2.871,-0.313 l 6.645,0 -2.066,1.133 -2,0 m -3.551,8.883 c 0.41,0 0.816,-0.086 1.195,-0.254 0.406,-0.168 0.742,-0.375 1,-0.629 0.363,-0.355 0.59,-0.754 0.676,-1.195 0.086,-0.438 0.129,-0.809 0.129,-1.102 0,-0.57 -0.086,-1.188 -0.258,-1.859 -0.172,-0.672 -0.43,-1.301 -0.77,-1.891 -0.348,-0.586 -0.773,-1.07 -1.289,-1.449 -0.496,-0.398 -1.078,-0.598 -1.742,-0.598 -0.434,0 -0.855,0.094 -1.258,0.285 -0.41,0.188 -0.742,0.438 -1,0.754 -0.277,0.336 -0.477,0.703 -0.578,1.102 -0.086,0.398 -0.129,0.809 -0.129,1.23 0,0.523 0.07,1.113 0.227,1.762 0.172,0.652 0.418,1.262 0.742,1.828 0.344,0.566 0.762,1.051 1.258,1.449 0.523,0.379 1.117,0.566 1.805,0.566 m 4.777,9.262 c 0,-0.402 -0.078,-0.77 -0.227,-1.105 -0.133,-0.313 -0.336,-0.629 -0.613,-0.945 -0.281,-0.313 -0.648,-0.637 -1.098,-0.973 -0.453,-0.336 -0.98,-0.715 -1.582,-1.137 -0.133,-0.02 -0.246,-0.031 -0.355,-0.031 -0.086,0 -0.215,0 -0.387,0 -0.066,0 -0.215,0 -0.449,0 -0.238,0.023 -0.516,0.043 -0.84,0.063 -0.324,0.043 -0.668,0.102 -1.031,0.16 -0.367,0.082 -0.723,0.176 -1.063,0.281 -0.176,0.063 -0.418,0.16 -0.742,0.285 -0.301,0.145 -0.605,0.344 -0.902,0.598 -0.301,0.25 -0.57,0.566 -0.809,0.945 -0.215,0.379 -0.32,0.852 -0.32,1.418 0,1.133 0.504,2.059 1.516,2.77 1.031,0.715 2.418,1.07 4.16,1.07 1.566,0 2.73,-0.324 3.523,-0.977 0.813,-0.629 1.227,-1.438 1.227,-2.422"
     id="path3097"
     inkscape:connector-curvature="0"
     style="opacity:0.1;fill:#000000;fill-opacity:1;fill-rule:nonzero;stroke:none" />
  <path
     d="m 34,16.738 0,5.262 5,0 0,2 -5,0 0,5 -2,0 0,-5 -5,0 0,-2 5,0 0,-5.262"
     id="path3099"
     inkscape:connector-curvature="0"
     style="opacity:0.1;fill:#000000;fill-opacity:1;fill-rule:nonzero;stroke:none" />
  <path
     d="m 21.04,12.148 c 0.191,0.148 0.418,0.348 0.676,0.598 0.258,0.23 0.508,0.527 0.742,0.883 0.238,0.336 0.441,0.734 0.613,1.199 0.172,0.461 0.258,0.984 0.258,1.574 0,0.586 -0.074,1.102 -0.227,1.543 -0.148,0.441 -0.355,0.84 -0.613,1.195 -0.258,0.336 -0.547,0.652 -0.871,0.945 -0.32,0.273 -0.656,0.535 -1,0.789 -0.215,0.207 -0.418,0.43 -0.613,0.66 -0.191,0.23 -0.289,0.523 -0.289,0.883 0,0.355 0.098,0.641 0.289,0.848 0.195,0.191 0.379,0.359 0.551,0.508 l 1.16,0.879 c 0.344,0.297 0.68,0.59 1,0.883 0.344,0.293 0.637,0.609 0.871,0.945 0.258,0.336 0.465,0.715 0.613,1.133 0.152,0.422 0.227,0.902 0.227,1.449 0,0.734 -0.184,1.461 -0.547,2.176 -0.367,0.711 -0.906,1.344 -1.613,1.887 -0.711,0.566 -1.605,1.02 -2.68,1.355 -1.055,0.355 -2.27,0.535 -3.645,0.535 -1.164,0 -2.184,-0.125 -3.066,-0.379 -0.859,-0.25 -1.582,-0.586 -2.16,-1.012 C 10.134,33.206 9.704,32.722 9.423,32.175 9.146,31.652 9.005,31.097 9.005,30.507 c 0,-0.566 0.184,-1.219 0.547,-1.953 0.348,-0.715 0.992,-1.344 1.938,-1.891 0.496,-0.293 1.023,-0.535 1.582,-0.723 0.578,-0.168 1.148,-0.305 1.707,-0.41 0.566,-0.105 1.086,-0.18 1.582,-0.219 0.496,-0.043 0.926,-0.074 1.289,-0.098 -0.234,-0.293 -0.461,-0.605 -0.676,-0.91 -0.195,-0.336 -0.289,-0.746 -0.289,-1.23 0,-0.273 0.031,-0.492 0.094,-0.66 0.066,-0.191 0.148,-0.379 0.23,-0.566 -0.172,0.02 -0.348,0.039 -0.52,0.063 -0.172,0 -0.344,0 -0.516,0 -0.859,0 -1.625,-0.137 -2.289,-0.406 -0.668,-0.293 -1.227,-0.676 -1.68,-1.137 -0.453,-0.465 -0.797,-0.984 -1.031,-1.578 -0.238,-0.602 -0.355,-1.215 -0.355,-1.82 0,-0.734 0.172,-1.473 0.52,-2.207 0.344,-0.754 0.855,-1.426 1.551,-2.023 0.922,-0.73 1.891,-1.207 2.902,-1.418 1.027,-0.207 1.984,-0.313 2.871,-0.313 l 6.645,0 -2.066,1.133 -2,0 m -3.551,8.883 c 0.41,0 0.816,-0.086 1.195,-0.254 0.406,-0.168 0.742,-0.375 1,-0.629 0.363,-0.355 0.59,-0.754 0.676,-1.195 0.086,-0.438 0.129,-0.809 0.129,-1.102 0,-0.57 -0.086,-1.188 -0.258,-1.859 -0.172,-0.672 -0.43,-1.301 -0.77,-1.891 -0.348,-0.586 -0.773,-1.07 -1.289,-1.449 -0.496,-0.398 -1.078,-0.598 -1.742,-0.598 -0.434,0 -0.855,0.094 -1.258,0.285 -0.41,0.188 -0.742,0.438 -1,0.754 -0.277,0.336 -0.477,0.703 -0.578,1.102 -0.086,0.398 -0.129,0.809 -0.129,1.23 0,0.523 0.07,1.113 0.227,1.762 0.172,0.652 0.418,1.262 0.742,1.828 0.344,0.566 0.762,1.051 1.258,1.449 0.523,0.379 1.117,0.566 1.805,0.566 m 4.777,9.262 c 0,-0.402 -0.078,-0.77 -0.227,-1.105 -0.133,-0.313 -0.336,-0.629 -0.613,-0.945 -0.281,-0.313 -0.648,-0.637 -1.098,-0.973 -0.453,-0.336 -0.98,-0.715 -1.582,-1.137 -0.133,-0.02 -0.246,-0.031 -0.355,-0.031 -0.086,0 -0.215,0 -0.387,0 -0.066,0 -0.215,0 -0.449,0 -0.238,0.023 -0.516,0.043 -0.84,0.063 -0.324,0.043 -0.668,0.102 -1.031,0.16 -0.367,0.082 -0.723,0.176 -1.063,0.281 -0.176,0.063 -0.418,0.16 -0.742,0.285 -0.301,0.145 -0.605,0.344 -0.902,0.598 -0.301,0.25 -0.57,0.566 -0.809,0.945 -0.215,0.379 -0.32,0.852 -0.32,1.418 0,1.133 0.504,2.059 1.516,2.77 1.031,0.715 2.418,1.07 4.16,1.07 1.566,0 2.73,-0.324 3.523,-0.977 0.813,-0.629 1.227,-1.438 1.227,-2.422"
     id="path3109"
     inkscape:connector-curvature="0"
     style="fill:#f9f9f9;fill-opacity:1;fill-rule:nonzero;stroke:none" />
  <path
     d="m 34,15.738 0,5.262 5,0 0,2 -5,0 0,5 -2,0 0,-5 -5,0 0,-2 5,0 0,-5.262"
     id="path3111"
     inkscape:connector-curvature="0"
     style="fill:#f9f9f9;fill-opacity:1;fill-rule:nonzero;stroke:none" />
  <path
     d="m 1,38.9978 0,4 c 0,2.216 1.784,4 4,4 l 38,0 c 2.216,0 4,-1.784 4,-4 l 0,-4 c 0,2.216 -1.784,4 -4,4 l -38,0 c -2.216,0 -4,-1.784 -4,-4 z"
     id="path3117"
     inkscape:connector-curvature="0"
     style="opacity:0.1" />
</svg>
